X: 20455
T: John Joe Harnett's
R: slide
M: 12/8
K: Adorian
|:E|A^GA e2 d d2 B =G2 E|A^GA e2 B dd/e/f =g2 G|
A^GA e2 d d2 B =G2 d|efg e2 d B2 A A2:|
g|e2 B def g2 f e2 d|Bcd e2 f g2 f e2 d|
e2 B def g2 f e2 d|Bcd e2 d B2 A A2 g|
e2 d def g2 f e2 d|Bcd e2 f g3 g2 a|
b2 g agf g2 f e2 d|efg e2 d B3 A2||

